X: 13961
T: Franc A'Phoill
R: jig
M: 6/8
K: Dmajor
|:A2D B2D|A2G FED|A2D B2F|GAG GFG|
A2D B2D|A2G FED|=CEG =cBA|GAG GFG:|
|:dfa afd|ded =cAG|FGA =cBA|GEF GFE|
dfa afa|geg fdf|e=cA FGA|GEF GFE:|
|:dcd dfd|dfd AFA|dcd dAF|GEF GAc|
dfd cec|BdB AFD|=CEG =cBA|GEF GFE:|
|:dDD cDD|BDD AFD|dDD =cAF|GAG GFE|
dDD cDD|BDD AFD|=CEG =cBA|GAG GFG:|

